X:169
U: ~ = !turn!
%%topmargin 3cm
T:Portroe
B:Traditional Irish Fiddle Tunes. Randy Miller and Jack Perron.
Z:Transcribed by Ralph Palmer
R:Jig
M:6/8
L:1/8
K:G
D2 B {/d}BAG | B/2c/2dB ABA | GED G2 A | BdB AGE |
D2 B {/d}BAG | B/2c/2dB ABA | GED G2 A | [1 BGF GFE :|] [2 BGF GBd |]
|: ege {/f}edB | ege {/f}edB "(A"| ~d3 dBA | ~d3 dBA "A)"|
G2 A B2 d | ege dBA | GED G2 A | [1 BGG GBd :|] [2 BGG G3 |]
xxxx "(A"|| ~d3 def | gfe dBA "A)"|| xxxx xxxx [|] xxxx
